X: 1
T: the Bridge of Dee
C: J.Young
R: strathspey
Z: 1997 by John Chambers <jc:trillian.mit.edu>
M: C
L: 1/8
K: D
G |\
"D"F<A A>F "G"G>F E>D | "Em"G<B "A7"A>G "D"F>A d2 |\
"D"F<A A>F "Em"G>F E>F | "A7"G>A, F>A, ~E2 E :|
B |\
"D"A<d de/f/ "G"g>A "D"f>A | "G"g>A "D"f>A "A7"(3efd (3cBA |\
"D"A<d de/f/ "G"g>f g>b | "A7"(3agf (3gfe "D"f<d dc/B/ ||
"D"A<d de/f/ "G"g>A "D"f>A | "G"g>A "D"f>A "A7"e<f g>b |\
"D"(3a^ga (3def "G"(3=gfg (3Bcd | "A7"(3efd (3cdB [1 (3ABG (3FGE :|2 (3ABc "D"d |]
